mobile/apps/auth/assets/custom-icons/icons/peerberry.svg

<svg xmlns="http://www.w3.org/2000/svg" fill="none" viewBox="0 0 500 500"><g clip-path="url(#a)"><path fill="#fff" d="M257.999 0c4.7 0 9.37.13 14.002.386V116.96c-5.31-.641-10.654-.96-16.003-.958-72.17 0-130.815 57.92-131.983 129.815L124 248v213.09C54.267 416.73 8 338.768 8 250 7.999 111.926 119.929 0 257.999 0Zm-2 159.997c4.918 0 9.743.406 14.44 1.183l1.562.27V248l.005 1.474c.313 28.493 9.651 54.814 25.294 76.251-12.314 6.556-26.373 10.276-41.302 10.276-48.597 0-87.997-39.4-87.997-88.002s39.4-88.002 87.997-88.002h.001Z" style="mix-blend-mode:difference"/><path fill="#00E6A5" d="M167.996 346.387c23.355 20.901 54.193 33.61 88.002 33.61 27.425 0 52.896-8.363 74.001-22.678 21.104 14.315 46.575 22.678 74 22.678 31.386 0 60.212-10.953 82.87-29.244C448.12 438.641 360.222 500 257.999 500c-31.724 0-62.073-5.909-90.003-16.69V346.386v.001Zm236.003-186.39c48.603 0 88.002 39.4 88.002 88.002s-39.399 88.002-88.002 88.002c-14.924 0-28.983-3.72-41.297-10.276 15.91-21.802 25.3-48.67 25.3-77.726 0-29.056-9.39-55.924-25.305-77.726 12.32-6.556 26.378-10.276 41.302-10.276Zm-74 40.358C338.857 214.086 344 230.443 344 247.999c0 17.556-5.143 33.913-14 47.644-8.86-13.73-14.003-30.088-14.003-47.644 0-17.07 4.862-33.006 13.272-46.497l.73-1.147ZM316.002 6.765c74.407 17.673 135.933 68.61 168.007 136.233C461.805 126.058 434.079 116 404 116c-27.425 0-52.896 8.363-74 22.678a131.374 131.374 0 0 0-12.189-7.343l-1.808-.943V6.764l-.001.001Z"/></g><defs><clipPath id="a"><path fill="#fff" d="M0 0h500v500H0z"/></clipPath></defs></svg>

<svg width="500" height="500" viewBox="0 0 500 500" fill="none" xmlns="http://www.w3.org/2000/svg">
<g clip-path="url(#clip0_191_1037)">
<g style="mix-blend-mode:difference">
<path d="M257.999 0C262.699 0 267.369 0.13 272.001 0.386V116.96C266.691 116.319 261.347 116 255.998 116.002C183.828 116.002 125.183 173.922 124.015 245.817L124 248V461.09C54.267 416.73 8 338.768 8 250C7.999 111.926 119.929 0 257.999 0ZM255.999 159.997C260.917 159.997 265.742 160.403 270.439 161.18L272.001 161.45V248L272.006 249.474C272.319 277.967 281.657 304.288 297.3 325.725C284.986 332.281 270.927 336.001 255.998 336.001C207.401 336.001 168.001 296.601 168.001 247.999C168.001 199.397 207.401 159.997 255.998 159.997H255.999Z" fill="white"/>
</g>
<path d="M167.996 346.387C191.351 367.288 222.189 379.997 255.998 379.997C283.423 379.997 308.894 371.634 329.999 357.319C351.103 371.634 376.574 379.997 403.999 379.997C435.385 379.997 464.211 369.044 486.869 350.753C448.12 438.641 360.222 500 257.999 500C226.275 500 195.926 494.091 167.996 483.31V346.386V346.387ZM403.999 159.997C452.602 159.997 492.001 199.397 492.001 247.999C492.001 296.601 452.602 336.001 403.999 336.001C389.075 336.001 375.016 332.281 362.702 325.725C378.612 303.923 388.002 277.055 388.002 247.999C388.002 218.943 378.612 192.075 362.697 170.273C375.017 163.717 389.075 159.997 403.999 159.997ZM329.999 200.355C338.857 214.086 344 230.443 344 247.999C344 265.555 338.857 281.912 330 295.643C321.14 281.913 315.997 265.555 315.997 247.999C315.997 230.929 320.859 214.993 329.269 201.502L329.999 200.355ZM316.002 6.76516C390.409 24.4382 451.935 75.3752 484.009 142.998C461.805 126.058 434.079 116 404 116C376.575 116 351.104 124.363 330 138.678C326.073 136.012 322.004 133.561 317.811 131.335L316.003 130.392V6.76416L316.002 6.76516Z" fill="#00E6A5"/>
</g>
<defs>
<clipPath id="clip0_191_1037">
<rect width="500" height="500" fill="white"/>
</clipPath>
</defs>
</svg>
